fs/window_header_vertical_20_regular.svg

<svg viewBox="0 0 20 20" fill="none" xmlns="http://www.w3.org/2000/svg" height="1em" width="1em">
  <path d="M5.5 3C4.11929 3 3 4.11929 3 5.5V14.5C3 15.8807 4.11929 17 5.5 17H14.5C15.8807 17 17 15.8807 17 14.5V5.5C17 4.11929 15.8807 3 14.5 3H5.5ZM7 4H14.5C15.3284 4 16 4.67157 16 5.5V14.5C16 15.3284 15.3284 16 14.5 16H7V4Z" fill="#212121"/>
</svg>

<svg viewBox="0 0 20 20" fill="none" xmlns="http://www.w3.org/2000/svg" height="1em" width="1em">
  <path d="M5.5 3A2.5 2.5 0 0 0 3 5.5v9A2.5 2.5 0 0 0 5.5 17h9a2.5 2.5 0 0 0 2.5-2.5v-9A2.5 2.5 0 0 0 14.5 3h-9ZM7 4h7.5A1.5 1.5 0 0 1 16 5.5v9a1.5 1.5 0 0 1-1.5 1.5H7V4Z" fill="#212121"/>
</svg>
